X:1
T:John B. Dykes
T:St Mary Magdalene
%%score { ( 1 2 ) | ( 3 4 ) }
L:1/8
Q:1/4=184
M:4/2
K:F
V:1 treble 
V:2 treble 
V:3 bass 
V:4 bass 
V:1
"^Presto" F4 F4 G4 A4 | B8 A8 | A4 A4 G4 F4 | E16 | F4 F4 G4 A4 | B8 A8 | A4 A4 ^G4 G4 | A16 | %8
 c4 c4 c4 A4 | B8 G8 | A4 A4 G4 F4 | E16 | F4 F4 G4 A4 | B8 A8 | A4 F4 G6 F2 | F16 | F8 F8 |] %17
V:2
 C4 F4 F4 F4 | F8 F8 | F4 E4 D4 C4 | C16 | C4 F4 F4 F4 | (F4 D4) F8 | F4 F4 E4 E4 | E16 | %8
 A4 G4 ^F4 F4 | (G4 F4) E8 | F4 E4 D4 D4 | C16 | C4 C4 C4 F4 | F8 F8 | F4 F4 F4 E4 | F16 | D8 C8 |] %17
V:3
 A,4 A,4 B,4 C4 | D8 C8 | C4 C4 B,4 A,4 | G,16 | A,4 A,4 B,4 C4 | (D4 B,4) C8 | =B,4 B,4 B,4 D4 | %7
 C16 | E4 E4 D4 D4 | D8 (C4 B,4) | A,4 C4 B,4 A,4 | G,16 | A,4 A,4 B,4 C4 | D8 C8 | %14
 C4 A,4 G,4 A,4 | A,16 | B,8 A,8 |] %17
V:4
 F,4 F,4 F,4 F,4 | F,8 F,8 | A,,4 A,,4 B,,4 F,4 | C,16 | F,4 F,4 F,4 F,4 | F,8 F,8 | %6
 D,4 D,4 E,4 E,4 | A,16 | A,4 A,4 D,4 D,4 | G,8 C,8 | F,4 F,4 B,,4 B,,4 | C,16 | F,4 F,4 E,4 _E,4 | %13
 (D,4 B,,4) F,8 | C,4 C,4 C,4 C,4 | F,16 | B,,8 F,,8 |] %17

